icons/2_Variations/WEB.DE fg.var.svg

<svg width="1024" height="1024" viewBox="0 0 1024 1024" fill="none" xmlns="http://www.w3.org/2000/svg">
<g clip-path="url(#clip0_3_326)">
<path d="M512 1024C794.77 1024 1024 794.77 1024 512C1024 229.23 794.77 0 512 0C229.23 0 0 229.23 0 512C0 794.77 229.23 1024 512 1024Z" fill="#F9DE81"/>
<path d="M326.53 413.059C334.897 409.75 343.583 407.313 352.45 405.789C482 390.269 537.95 390.269 682 396.479C681 385.069 626 386.109 607.39 380.929C588.78 375.749 446.78 373.679 404.27 385.069L348.27 395.439C339.99 397.509 335.85 386.099 336.88 380.929C337.91 375.759 328.58 379.929 346.2 372.649C363.82 365.369 394.91 363.309 412.53 361.239C499.117 351.573 586.614 353.662 672.64 367.449C672.64 367.449 695.43 370.579 700.64 378.859C702.484 383.472 702.833 388.547 701.64 393.369C700.64 396.479 689.17 401.649 697.5 399.579C705.83 397.509 722.39 397.579 728.6 408.919C734.81 420.259 724.48 422.349 721.35 425.479C718.22 428.609 720.29 435.849 714.08 438.959C707.87 442.069 691.29 434.819 684.02 434.819L658.12 431.709C624.754 427.905 591.105 427.212 557.61 429.639C525.728 429.603 493.879 431.677 462.27 435.849C434.27 441.029 403.18 443.099 375.21 452.429C364.84 455.539 329.6 457.629 330.64 448.289C331.68 438.949 345.13 437.919 350.33 435.849C355.53 433.779 359.67 436.849 363.81 431.709C367.95 426.569 346.19 430.709 341.02 431.709C335.85 432.709 328.58 436.889 323.4 434.819C308.91 429.639 315.14 416.159 326.53 413.059ZM514.1 344.659C519.3 345.659 559.71 346.729 561.78 331.179C561.342 321.803 558.087 312.777 552.44 305.279C548.3 302.169 541.05 325.999 538.98 303.209C538.866 298.646 538.17 294.116 536.91 289.729C535.85 287.659 534.82 286.619 532.75 286.619H530.68C529.1 287.955 528.006 289.776 527.57 291.799C524.46 298.029 523.43 319.799 518.25 319.799C513.07 319.799 512.02 306.319 513.05 302.179H512.05C509.019 303.861 506.233 305.95 503.77 308.389C497.54 314.619 490.29 329.109 494.43 336.389C496.79 339.335 499.789 341.706 503.2 343.321C506.612 344.936 510.346 345.752 514.12 345.709L514.1 344.659ZM791.74 662.799C792.74 661.799 792.74 659.689 793.81 657.619C793.982 656.164 793.627 654.696 792.81 653.479C792.739 650.441 791.643 647.516 789.7 645.179C782.45 634.829 747.22 628.599 747.22 628.599C729.6 624.459 708.88 621.349 686.08 618.249C687.874 600.309 687.538 582.22 685.08 564.359C686.329 539.489 685.968 514.563 684 489.739C683.932 480.787 681.033 472.085 675.72 464.879C671.58 458.649 670.54 452.439 660.17 453.469C649.8 454.499 647.75 466.949 649.82 474.189L653.96 489.739C654.96 492.849 659.14 592.319 658.1 601.659V615.139L582.56 609.939H583.56C596 599.589 591.86 586.109 589.77 571.599C587.68 557.089 588.77 481.459 586.66 473.159C584.55 464.859 579.41 463.839 574.24 458.649C572.364 455.936 569.489 454.077 566.244 453.479C563 452.881 559.651 453.593 556.93 455.459C556.044 456.085 555.243 456.824 554.55 457.659C548.32 463.889 556.62 547.819 556.62 584.089C556.224 592.447 556.919 600.821 558.69 608.999H484.06C484.06 607.999 483.06 605.889 483.06 604.859C480.865 600.201 479.124 595.341 477.86 590.349C476.608 583.16 475.916 575.885 475.79 568.589C474.79 553.039 476.79 506.419 477.86 493.979C478.93 481.539 487.2 456.669 463.37 461.849C457.31 462.348 451.358 463.746 445.71 465.999C441.57 469.059 441.57 477.339 441.57 481.499C441.57 485.659 439.5 547.809 439.5 560.249C439.629 571.498 441.38 582.67 444.7 593.419C448.559 600.382 454.297 606.121 461.26 609.979H431.2L376.27 614.139C373.16 605.839 377.27 570.599 384.55 504.289C386.62 488.739 383.55 488.739 374.2 479.399C372.32 476.69 369.446 474.834 366.203 474.237C362.96 473.639 359.613 474.348 356.89 476.209C356.008 476.84 355.209 477.579 354.51 478.409C348.28 483.609 349.31 489.819 348.28 497.059C345.17 520.909 340 560.289 337.93 585.149C337.144 595.897 337.841 606.701 340 617.259V619.329L309.94 623.469C283.01 627.609 260.21 628.649 244.66 635.909C229.11 643.169 234.29 641.089 232.22 645.229L230.15 649.349C230.605 650.697 230.939 652.082 231.15 653.489C231.501 655.673 232.468 657.71 233.939 659.362C235.41 661.013 237.322 662.209 239.45 662.809H248.77C264.225 664.347 279.778 661.093 293.32 653.489C379.32 619.289 624.94 629.659 678.83 640.009C702.66 645.189 738.93 649.349 760.71 662.799L771.1 666.999H775.24C777.98 667.549 780.801 667.549 783.54 666.999H786.65C788.787 666.218 790.607 664.756 791.83 662.839" fill="#56595B"/>
</g>
<defs>
<clipPath id="clip0_3_326">
<rect width="1024" height="1024" fill="white"/>
</clipPath>
</defs>
</svg>

<svg width="1024" height="1024" fill="none" xmlns="http://www.w3.org/2000/svg"><g clip-path="url(#a)"><path d="M512 1024c282.77 0 512-229.23 512-512S794.77 0 512 0 0 229.23 0 512s229.23 512 512 512Z" fill="#F9DE81"/><path d="M326.53 413.059a130.663 130.663 0 0 1 25.92-7.27c129.55-15.52 185.5-15.52 329.55-9.31-1-11.41-56-10.37-74.61-15.55-18.61-5.18-160.61-7.25-203.12 4.14l-56 10.37c-8.28 2.07-12.42-9.34-11.39-14.51 1.03-5.17-8.3-1 9.32-8.28 17.62-7.28 48.71-9.34 66.33-11.41a966.272 966.272 0 0 1 260.11 6.21s22.79 3.13 28 11.41a23.734 23.734 0 0 1 1 14.51c-1 3.11-12.47 8.28-4.14 6.21 8.33-2.07 24.89-2 31.1 9.34 6.21 11.34-4.12 13.43-7.25 16.56-3.13 3.13-1.06 10.37-7.27 13.48-6.21 3.11-22.79-4.14-30.06-4.14l-25.9-3.11a541.712 541.712 0 0 0-100.51-2.07 722.363 722.363 0 0 0-95.34 6.21c-28 5.18-59.09 7.25-87.06 16.58-10.37 3.11-45.61 5.2-44.57-4.14 1.04-9.34 14.49-10.37 19.69-12.44 5.2-2.07 9.34 1 13.48-4.14 4.14-5.14-17.62-1-22.79 0-5.17 1-12.44 5.18-17.62 3.11-14.49-5.18-8.26-18.66 3.13-21.76Zm187.57-68.4c5.2 1 45.61 2.07 47.68-13.48a46.672 46.672 0 0 0-9.34-25.9c-4.14-3.11-11.39 20.72-13.46-2.07a53.69 53.69 0 0 0-2.07-13.48c-1.06-2.07-2.09-3.11-4.16-3.11h-2.07a9.369 9.369 0 0 0-3.11 5.18c-3.11 6.23-4.14 28-9.32 28-5.18 0-6.23-13.48-5.2-17.62h-1a37.907 37.907 0 0 0-8.28 6.21c-6.23 6.23-13.48 20.72-9.34 28a24.86 24.86 0 0 0 19.69 9.32l-.02-1.05Zm277.64 318.14c1-1 1-3.11 2.07-5.18a6.135 6.135 0 0 0-1-4.14 13.475 13.475 0 0 0-3.11-8.3c-7.25-10.35-42.48-16.58-42.48-16.58-17.62-4.14-38.34-7.25-61.14-10.35a228.504 228.504 0 0 0-1-53.89 577.615 577.615 0 0 0-1.08-74.62 42.437 42.437 0 0 0-8.28-24.86c-4.14-6.23-5.18-12.44-15.55-11.41-10.37 1.03-12.42 13.48-10.35 20.72l4.14 15.55c1 3.11 5.18 102.58 4.14 111.92v13.48l-75.54-5.2h1c12.44-10.35 8.3-23.83 6.21-38.34-2.09-14.51-1-90.14-3.11-98.44-2.11-8.3-7.25-9.32-12.42-14.51a12.468 12.468 0 0 0-17.31-3.19 12.362 12.362 0 0 0-2.38 2.2c-6.23 6.23 2.07 90.16 2.07 126.43a96.185 96.185 0 0 0 2.07 24.91h-74.63c0-1-1-3.11-1-4.14a80.252 80.252 0 0 1-5.2-14.51 141.017 141.017 0 0 1-2.07-21.76c-1-15.55 1-62.17 2.07-74.61 1.07-12.44 9.34-37.31-14.49-32.13a61.223 61.223 0 0 0-17.66 4.15c-4.14 3.06-4.14 11.34-4.14 15.5s-2.07 66.31-2.07 78.75a116.943 116.943 0 0 0 5.2 33.17 42.464 42.464 0 0 0 16.56 16.56H431.2l-54.93 4.16c-3.11-8.3 1-43.54 8.28-109.85 2.07-15.55-1-15.55-10.35-24.89a12.49 12.49 0 0 0-17.31-3.19 13.002 13.002 0 0 0-2.38 2.2c-6.23 5.2-5.2 11.41-6.23 18.65-3.11 23.85-8.28 63.23-10.35 88.09a117.496 117.496 0 0 0 2.07 32.11v2.07l-30.06 4.14c-26.93 4.14-49.73 5.18-65.28 12.44-15.55 7.26-10.37 5.18-12.44 9.32l-2.07 4.12a24.134 24.134 0 0 1 1 4.14 11.596 11.596 0 0 0 8.3 9.32h9.32a75.683 75.683 0 0 0 44.55-9.32c86-34.2 331.62-23.83 385.51-13.48 23.83 5.18 60.1 9.34 81.88 22.79l10.39 4.2h4.14c2.74.55 5.561.55 8.3 0h3.11a10.364 10.364 0 0 0 5.18-4.16" fill="#56595B"/></g><defs><clipPath id="a"><path fill="#fff" d="M0 0h1024v1024H0z"/></clipPath></defs></svg>
